svg/ghost.svg

<svg xmlns="http://www.w3.org/2000/svg" viewBox="0 0 48 64" enable-background="new 0 0 48 64"><style type="text/css">.st0{fill:#343434;}</style><title>ghost</title><desc>Created with Sketch.</desc><circle class="st0" cx="34" cy="22" r="6"/><circle class="st0" cx="14" cy="22" r="6"/><path class="st0" d="M24 0c-13.3 0-24 10.7-24 24v40l8.1-8 8 8 5.1-5.2 2.8-2.8 2.8 2.8 5.2 5.2 5.2-5.2 2.8-2.8 2.8 2.8 5.2 5.2v-40c0-13.3-10.7-24-24-24zm20 54.3l-3.9-3.9-8.1 8-8-8-8 8-7.9-8-4.1 4v-30.4c0-11 9-20 20-20s20 9 20 20v30.3z"/></svg>

<svg xmlns="http://www.w3.org/2000/svg" viewBox="0 0 48 64"><style>.st0{fill:#343434}</style><circle class="st0" cx="34" cy="22" r="6"/><circle class="st0" cx="14" cy="22" r="6"/><path class="st0" d="M24 0C10.7 0 0 10.7 0 24v40l8.1-8 8 8 5.1-5.2L24 56l2.8 2.8L32 64l5.2-5.2L40 56l2.8 2.8L48 64V24C48 10.7 37.3 0 24 0zm20 54.3l-3.9-3.9-8.1 8-8-8-8 8-7.9-8-4.1 4V24C4 13 13 4 24 4s20 9 20 20v30.3z"/></svg>
